static/assets/img/icons/theme/navigation/angle-double-right.svg

<svg height="24" viewBox="0 0 24 24" width="24" xmlns="http://www.w3.org/2000/svg"><g fill="none" fill-rule="evenodd"><path d="m0 0h24v24h-24z" opacity="0"/><g fill="#000" fill-rule="nonzero"><path d="m12.2928955 6.70710318c-.3905243-.3905243-.3905243-1.02368927 0-1.41421357.3905243-.39052429 1.0236893-.39052429 1.4142136 0l6 5.99999999c.3785789.378579.3918245.9881654.0300473 1.3828314l-5.5 6c-.3731924.407119-1.0057598.4346219-1.4128787.0614295-.407119-.3731924-.434622-1.0057597-.0614296-1.4128787l4.8530164-5.2941997z"/><path d="m3.70710678 15.7071068c-.39052429.3905243-1.02368927.3905243-1.41421356 0s-.39052429-1.0236893 0-1.4142136l6-5.99999998c.37857894-.37857894.98816537-.39182456 1.38283141-.03004736l5.99999997 5.50000004c.407119.3731924.4346219 1.0057597.0614295 1.4128787s-1.0057597.4346219-1.4128787.0614295l-5.29419965-4.8530163z" opacity=".3" transform="matrix(0 1 -1 0 21.000002 2.999996)"/></g></g></svg>

<svg width="24px" height="24px" viewBox="0 0 24 24" version="1.1" xmlns="http://www.w3.org/2000/svg" xmlns:xlink="http://www.w3.org/1999/xlink">
    <title>Icon For Angle-double-right</title>
    <g stroke="none" stroke-width="1" fill="none" fill-rule="evenodd">
        <polygon points="0 0 24 0 24 24 0 24" opacity="0"></polygon>
        <path d="M12.2928955,6.70710318 C11.9023712,6.31657888 11.9023712,5.68341391 12.2928955,5.29288961 C12.6834198,4.90236532 13.3165848,4.90236532 13.7071091,5.29288961 L19.7071091,11.2928896 C20.085688,11.6714686 20.0989336,12.281055 19.7371564,12.675721 L14.2371564,18.675721 C13.863964,19.08284 13.2313966,19.1103429 12.8242777,18.7371505 C12.4171587,18.3639581 12.3896557,17.7313908 12.7628481,17.3242718 L17.6158645,12.0300721 L12.2928955,6.70710318 Z" fill="#000000" fill-rule="nonzero"></path>
        <path d="M3.70710678,15.7071068 C3.31658249,16.0976311 2.68341751,16.0976311 2.29289322,15.7071068 C1.90236893,15.3165825 1.90236893,14.6834175 2.29289322,14.2928932 L8.29289322,8.29289322 C8.67147216,7.91431428 9.28105859,7.90106866 9.67572463,8.26284586 L15.6757246,13.7628459 C16.0828436,14.1360383 16.1103465,14.7686056 15.7371541,15.1757246 C15.3639617,15.5828436 14.7313944,15.6103465 14.3242754,15.2371541 L9.03007575,10.3841378 L3.70710678,15.7071068 Z" fill="#000000" fill-rule="nonzero" opacity="0.3" transform="translate(9.000003, 11.999999) rotate(-270.000000) translate(-9.000003, -11.999999) "></path>
    </g>
</svg>
